svg/camera_gopro.svg

<svg xmlns="http://www.w3.org/2000/svg" viewBox="0 0 24 24"><path d="M20 5h-5a2 2 0 0 0-2 2v5a2 2 0 0 0 2 2h5a2 2 0 0 0 2-2V7a2 2 0 0 0-2-2m-2.5 7.5a3 3 0 0 1-3-3 3 3 0 0 1 3-3 3 3 0 0 1 3 3 3 3 0 0 1-3 3m0-1.5A1.5 1.5 0 0 1 16 9.5 1.5 1.5 0 0 1 17.5 8 1.5 1.5 0 0 1 19 9.5a1.5 1.5 0 0 1-1.5 1.5M12 15V5H4a2 2 0 0 0-2 2v10a2 2 0 0 0 2 2h16a2 2 0 0 0 2-2v-2zm-2-3H4V7h6z"/></svg>

<?xml version="1.0" encoding="UTF-8"?><!DOCTYPE svg PUBLIC "-//W3C//DTD SVG 1.1//EN" "http://www.w3.org/Graphics/SVG/1.1/DTD/svg11.dtd"><svg xmlns="http://www.w3.org/2000/svg" xmlns:xlink="http://www.w3.org/1999/xlink" version="1.1" id="mdi-camera-gopro" width="24" height="24" viewBox="0 0 24 24"><path d="M20,5H15A2,2 0 0,0 13,7V12A2,2 0 0,0 15,14H20A2,2 0 0,0 22,12V7A2,2 0 0,0 20,5M17.5,12.5A3,3 0 0,1 14.5,9.5A3,3 0 0,1 17.5,6.5A3,3 0 0,1 20.5,9.5A3,3 0 0,1 17.5,12.5M17.5,11A1.5,1.5 0 0,1 16,9.5A1.5,1.5 0 0,1 17.5,8A1.5,1.5 0 0,1 19,9.5A1.5,1.5 0 0,1 17.5,11M12,15V5H4A2,2 0 0,0 2,7V17A2,2 0 0,0 4,19H20A2,2 0 0,0 22,17V15H12M10,12H4V7H10V12Z" /></svg>
